!!!OTL: 1359. Hohenzollern.
!!!ARE: Europa, Mitteleuropa, Deutschland, Hessen, Darmstadt;
!!    Frankreich, Elsass, Weissenburg
!!!SCT: E1359
!!!TXL: @@DE
!!!YEM: Copyright 1995, estate of Helmut Schaffrath.
**kern	**text
*ICvox	*
!! Mixed meters:  4/4; 3/4
*M4/4	*
*met(c)	*
*k[b-e-a-]	*
*E-:	*
!LO:TX:a:t=Etwas langsam.	!
!LO:TX:a:t=Aus dem Elſaß (Weißenburg) 1889 und Heſſen-Darmſtadt 1880.	!
{4B-	Nicht
=1	=1
4.e-	weit
8f	von
8g	Würt-
8a-	-tem-
8b-	-berg
8cc	und
=2	=2
8b-L	Ba-
8ee-J	.
4ee-	-den
4r}	.
{8b-L	und
8ee-J	.
=3	=3
4.dd	von
8cc	der
8b-/	wunder-
8a-	.
8cc	-vol-
8b-	-len
=4	=4
2g	Schweiʒ,
4r}	.
{4B-	Da
=5	=5
4.e-	liegt
8f	ein
8g	Berg
8a-	ſo
8b-	hoch
8cc	er-
=6	=6
8b-L	-ha-
8ee-J	.
4ee-	-ben,
4r}	.
{8b-L	den
8ee-J	.
=7	=7
4.dd	man
8cc	den
8b-/	Ho-
8a-	-hen-
8cc	-ʒollern
8b-	.
=8	=8
2g	heißt.
4r	.
8r}	.
{8b-	Er
=9	=9
*M3/4	*
8f	ſchaut
8b-	he-
4.a-	-rab
8f	ſo
=10	=10
8g	ſtolʒ
8cc	und
4.b-}	kühn
{8g	auf
=11	=11
8f	al-
8b-	-le
4.a-	die
8f	vor-
=12	=12
8g	-ü-
8cc	-ber
4b-	ʒiehn
8r}	.
{4B-	an
=13	=13
*M4/4	*
*met(c|)	*
4.e-	Ho-
8f	-hen-
8g	-ʒol-
8a-	-lerns
8b-	ſtei-
8cc	-len
=14	=14
8b-L	Fel-
8ee-J	.
4ee-	-ſen,
4r}	.
{8b-L	wo
8ee-J	.
=15	=15
4.dd	un-
8cc	-ver-
8.b-	-ʒagt
16a-	die
8cc	Ein-
8b-	-tracht
=16	=16
2g	ruht.
4r}	.
==	==
!!!AGN: Staende -, Soldaten -, Kriegs - Lied
!!!ONB: ESAC (Essen Associative Code) Database: ERK3
!!!AMT: irregular
!!!AIN: vox
!!!EED: Helmut Schaffrath
!!!EEV: 1.0
!!!GTL: Staendelieder (Berufslieder). 1. Soldaten- und Kriegslieder. Soldatenlieder seit dem 30jaehr. Kriege.
!!!URL-scan: https://rosdok.uni-rostock.de/mcrviewer/recordIdentifier/rosdok_ppn745177999/iview2/phys_0237.iview2?x=-128.77276441889285&y=544.3236105446704&scale=0.5870222003877487&rotation=0&layout=singlePageLayout
!!!ENC: Anna Maria Matuszewska
!!!EEV: 2024/12/30
*-	*-
